dist/svgs/carbon-icons/svg/open-whisk.svg

<svg xmlns="http://www.w3.org/2000/svg" fill-rule="evenodd" viewBox="0 0 25 16"><path d="M9.9 9.7L4.5 0 0 8l4.5 8h8l.5-.8 3-5.5H9.9zm-4.7 5.1L1.4 8l3.1-5.5 6.9 12.3H5.2zm7.2-1.1l-1.6-2.8h3.1l-1.5 2.8z"/><path d="M19.5 0h-7.8l-.6 1.1-3 5.5h6l5.3 9.5L24 8l-4.5-8zm-9.3 5.3l1.5-2.8 1.6 2.8h-3.1zm2.4-4.1h6.2L22.6 8l-3.1 5.5-6.9-12.3z"/></svg>

<svg width="25px" height="16px" viewBox="0 0 25 16" version="1.1" xmlns="http://www.w3.org/2000/svg" xmlns:xlink="http://www.w3.org/1999/xlink" fill-rule="evenodd">
    <path d="M9.9,9.7 L4.5,0 L0,8 L4.5,16 L12.3,16 L12.5,16 L13,15.2 L16,9.7 L9.9,9.7 L9.9,9.7 Z M5.2,14.8 L1.4,8 L4.5,2.5 L11.4,14.8 L5.2,14.8 L5.2,14.8 Z M12.4,13.7 L10.8,10.9 L13.9,10.9 L12.4,13.7 L12.4,13.7 Z" id="Shape"></path>
    <path d="M19.5,0 L11.7,0 L11.1,1.1 L8.1,6.6 L14.1,6.6 L19.4,16.1 L24,8 L19.5,0 L19.5,0 Z M10.2,5.3 L11.7,2.5 L13.3,5.3 L10.2,5.3 L10.2,5.3 Z M12.6,1.2 L18.8,1.2 L22.6,8 L19.5,13.5 L12.6,1.2 L12.6,1.2 Z" id="Shape"></path>
</svg>
